X: 42868
T: Wild Rover, The
R: waltz
M: 3/4
K: Dmajor
D|D>E D D A, F|F E>F G3-|G2 A A F A|G E>C A, F>E|
D3- D2 D|D E>D D A, F|F E F G3-|G2 A A F>A|
G/ E>C C/ A, F E|D C D E3|C A,<A,- A,3|A, F F F E>F|
G3- G F G|A3- A>F D|C B,2- B,2 B,|A, F>F- F2 E|D3- D2 z|

